app/assets/images/ico-copy.svg

<svg xmlns="http://www.w3.org/2000/svg" viewBox="0 0 14 14"><path d="M14 3.75v9.5a.76.76 0 01-.75.75h-7.5a.76.76 0 01-.75-.75V11H.75a.76.76 0 01-.75-.75V5a2.1 2.1 0 01.53-1.28L3.72.53A2.1 2.1 0 015 0h3.25A.76.76 0 019 .75v2.56A2.15 2.15 0 0110 3h3.25a.76.76 0 01.75.75zm-6 .5V1H5v3.25a.76.76 0 01-.75.75H1v5h4V8a2.1 2.1 0 01.53-1.28zM1.66 4H4V1.66zM13 4h-3v3.25a.76.76 0 01-.75.75H6v5h7zM6.66 7H9V4.66z" fill="#0071bb"/></svg>

<svg xmlns="http://www.w3.org/2000/svg" viewBox="0 0 14 14"><title>copy</title><g id="Layer_2" data-name="Layer 2"><g id="Layer_3" data-name="Layer 3"><path d="M14,3.75v9.5a.76.76,0,0,1-.75.75H5.75A.76.76,0,0,1,5,13.25V11H.75A.76.76,0,0,1,0,10.25V5A2.1,2.1,0,0,1,.53,3.72L3.72.53A2.1,2.1,0,0,1,5,0H8.25A.76.76,0,0,1,9,.75V3.31A2.15,2.15,0,0,1,10,3h3.25A.76.76,0,0,1,14,3.75Zm-6,.5V1H5V4.25A.76.76,0,0,1,4.25,5H1v5H5V8a2.1,2.1,0,0,1,.53-1.28ZM1.66,4H4V1.66ZM13,4H10V7.25A.76.76,0,0,1,9.25,8H6v5h7ZM6.66,7H9V4.66Z" fill="#0071bb"/></g></g></svg>
